X:42
T:Keithmore Strathspey
C:His Grace the Duke of Gordon
S:Petrie's Third Collection of Strathspey Reels and Country Dances &c.
Z:Steve Wyrick <sjwyrick'at'gmail'dot'com>, 7/30/05
N:Petrie's Third Collection, page 17
L:1/8
M:C
R:Strathspey
K:Bb
"^Slow"
F|B>df>d g>ab>g|f<dc>B c>Bc<d|B>df>d g>ab>g|f<dc>d B2B::(f/g//a//)|
b>Bd>F G/F/G/A/ Bd|cB g/f/e/d/ dc-c(f/g//a//)|b>Bd>f g/f/g/a/ Hb>g|fd Tc/B/c/d/ B2B:|
